X: 9
T: Tobin's Favourite
Z: Sean Perry
S: https://thesession.org/tunes/308#setting50911
R: jig
M: 6/8
L: 1/8
K: Dmaj
|:DFA dcd|ecA cde|~f3 gfg|ecA GFE|
DFA dcd|ecA cde|f/g/af gec|edc d3:|
|:fga agf|efg efg|~f3 gfg|ecA GFE|
DFA dcd|ecA cde|f/g/af gec|edc d3:|

